icons/italic-24.svg

<svg xmlns="http://www.w3.org/2000/svg" width="24" height="24" viewBox="0 0 24 24"><path fill-rule="evenodd" d="M10 4.75a.75.75 0 01.75-.75h8.5a.75.75 0 010 1.5h-3.514l-5.828 13h3.342a.75.75 0 010 1.5h-8.5a.75.75 0 010-1.5h3.514l5.828-13H10.75a.75.75 0 01-.75-.75z"/></svg>

<svg xmlns="http://www.w3.org/2000/svg" width="24" height="24" viewBox="0 0 24 24">
  <defs/>
  <path d="M10,4.75 C10,4.336 10.336,4 10.75,4 L19.25,4 C19.664,4 20,4.336 20,4.75 C20,5.164 19.664,5.5 19.25,5.5 L15.736,5.5 L9.908,18.5 L13.25,18.5 C13.664,18.5 14,18.836 14,19.25 C14,19.664 13.664,20 13.25,20 L4.75,20 C4.336,20 4,19.664 4,19.25 C4,18.836 4.336,18.5 4.75,18.5 L8.264,18.5 L14.092,5.5 L10.75,5.5 C10.336,5.5 10,5.164 10,4.75 Z"/>
</svg>
